hero/solid/document-plus.svg

<svg width="24" height="24" viewBox="0 0 24 24" fill="none" xmlns="http://www.w3.org/2000/svg">
<path fill-rule="evenodd" clip-rule="evenodd" d="M5.625 1.5H9C11.0711 1.5 12.75 3.17893 12.75 5.25V7.125C12.75 8.16053 13.5895 9 14.625 9H16.5C18.5711 9 20.25 10.6789 20.25 12.75V20.625C20.25 21.6605 19.4105 22.5 18.375 22.5H5.625C4.58947 22.5 3.75 21.6605 3.75 20.625V3.375C3.75 2.33947 4.58947 1.5 5.625 1.5ZM12.75 12C12.75 11.5858 12.4142 11.25 12 11.25C11.5858 11.25 11.25 11.5858 11.25 12V14.25H9C8.58579 14.25 8.25 14.5858 8.25 15C8.25 15.4142 8.58579 15.75 9 15.75H11.25V18C11.25 18.4142 11.5858 18.75 12 18.75C12.4142 18.75 12.75 18.4142 12.75 18V15.75H15C15.4142 15.75 15.75 15.4142 15.75 15C15.75 14.5858 15.4142 14.25 15 14.25H12.75V12Z" fill="#0F172A"/>
<path d="M14.25 5.25C14.25 3.93695 13.768 2.73648 12.9712 1.8159C16.3701 2.70377 19.0462 5.37988 19.9341 8.77881C19.0135 7.98204 17.8131 7.5 16.5 7.5H14.625C14.4179 7.5 14.25 7.33211 14.25 7.125V5.25Z" fill="#0F172A"/>
</svg>

<svg viewBox="0 0 24 24" xmlns="http://www.w3.org/2000/svg"><path fill-rule="evenodd" d="M5.625 1.5H9v0c2.07 0 3.75 1.67 3.75 3.75v1.875c0 1.03.84 1.875 1.875 1.875H16.5v0c2.07 0 3.75 1.67 3.75 3.75v7.875c0 1.03-.84 1.875-1.875 1.875H5.625v0c-1.04 0-1.875-.84-1.875-1.875V3.375c0-1.036.84-1.875 1.875-1.875ZM12.75 12v0c0-.42-.34-.75-.75-.75 -.42 0-.75.33-.75.75v2.25H9v0c-.42 0-.75.33-.75.75 0 .41.33.75.75.75h2.25V18v0c0 .41.33.75.75.75 .41 0 .75-.34.75-.75v-2.25H15v0c.41 0 .75-.34.75-.75 0-.42-.34-.75-.75-.75h-2.25V12Z"/><path d="M14.25 5.25v0c0-1.27-.46-2.49-1.28-3.44L12.96 1.8c3.4.89 6.06 3.55 6.96 6.96v0c-.96-.83-2.18-1.29-3.44-1.28h-1.875v0c-.21 0-.375-.17-.375-.375v-1.88Z"/></svg>
